symbolic/32x32/apps/bitwarden.svg

<svg xmlns="http://www.w3.org/2000/svg" width="32" height="32" version="1">
 <rect style="opacity:0.2" width="29" height="29" x="1" y="2" rx="1.45" ry="1.45"/>
 <rect style="fill:#175ddc" width="29" height="29" x="1" y="1" rx="1.45" ry="1.45"/>
 <path style="opacity:0.1;fill:#ffffff" d="M 2.4492,1 C 1.6459,1 1,1.6459 1,2.4492 V 3.4492 C 1,2.6459 1.6459,2 2.4492,2 H 28.551 C 29.354,2 30,2.6459 30,3.4492 V 2.4492 C 30,1.6459 29.354,1 28.551,1 Z"/>
 <path style="opacity:0.2" d="M 15.5,7 C 15.5,7 7.6049,7.0047 7.4043,7.1249 6.9785,7.3802 7,7.0641 7,13.018 7,19.059 6.9923,18.938 7.457,20.109 7.9916,21.457 8.8523,22.596 10.266,23.834 11.452,24.873 12.858,25.813 14.426,26.611 14.956,26.881 15.231,27.004 15.5,27 15.769,27.004 16.044,26.881 16.574,26.611 18.142,25.813 19.548,24.873 20.734,23.834 22.148,22.596 23.008,21.457 23.543,20.109 24.008,18.938 24,19.059 24,13.018 24,7.0641 24.022,7.3802 23.596,7.1249 23.395,7.0046 15.5,7 15.5,7 Z M 20.979,10.014 C 20.979,10.014 20.993,17.548 20.951,18.197 20.909,18.847 20.997,18.391 20.754,19.004 20.413,19.865 19.939,20.544 18.758,21.578 17.861,22.363 16.732,23.09 15.5,23.746 L 15,23.451 V 10.002 Z"/>
 <path style="fill:#efefef" d="M 15.5,6 C 15.5,6 7.6049,6.0047 7.4043,6.1249 6.9785,6.3802 7,6.0641 7,12.018 7,18.059 6.9923,17.938 7.457,19.109 7.9916,20.457 8.8523,21.596 10.266,22.834 11.452,23.873 12.858,24.813 14.426,25.611 14.956,25.881 15.231,26.004 15.5,26 15.769,26.004 16.044,25.881 16.574,25.611 18.142,24.813 19.548,23.873 20.734,22.834 22.148,21.596 23.008,20.457 23.543,19.109 24.008,17.938 24,18.059 24,12.018 24,6.0641 24.022,6.3802 23.596,6.1249 23.395,6.0046 15.5,6 15.5,6 Z M 20.979,9.0136 C 20.979,9.0136 20.993,16.548 20.951,17.197 20.909,17.847 20.997,17.391 20.754,18.004 20.413,18.865 19.939,19.544 18.758,20.578 17.861,21.363 16.732,22.09 15.5,22.746 L 15,22.451 V 9.0019 Z"/>
</svg>

<svg xmlns="http://www.w3.org/2000/svg" width="32" height="32" version="1"><rect style="opacity:.2" width="29" height="29" x="1" y="2" rx="1.45" ry="1.45"/><rect style="fill:#175ddc" width="29" height="29" x="1" y="1" rx="1.45" ry="1.45"/><path style="opacity:.1;fill:#fff" d="M2.45 1C1.645 1 1 1.646 1 2.45v1C1 2.645 1.646 2 2.45 2H28.55C29.354 2 30 2.646 30 3.45v-1C30 1.645 29.354 1 28.551 1z"/><path style="opacity:.2" d="M15.5 7s-7.895.005-8.096.125C6.98 7.38 7 7.065 7 13.018c0 6.041-.008 5.92.457 7.091.535 1.348 1.395 2.487 2.809 3.725 1.186 1.039 2.592 1.979 4.16 2.777.53.27.805.393 1.074.389.269.004.544-.119 1.074-.389 1.568-.798 2.974-1.738 4.16-2.777 1.414-1.238 2.274-2.377 2.809-3.725.465-1.171.457-1.05.457-7.091 0-5.954.022-5.638-.404-5.893C23.395 7.005 15.5 7 15.5 7zm5.479 3.014s.014 7.534-.028 8.183c-.042.65.046.194-.197.807-.341.861-.815 1.54-1.996 2.574-.897.785-2.026 1.512-3.258 2.168l-.5-.295V10.002z"/><path style="fill:#efefef" d="M15.5 6s-7.895.005-8.096.125C6.98 6.38 7 6.065 7 12.018c0 6.041-.008 5.92.457 7.091.535 1.348 1.395 2.487 2.809 3.725 1.186 1.039 2.592 1.979 4.16 2.777.53.27.805.393 1.074.389.269.004.544-.119 1.074-.389 1.568-.798 2.974-1.738 4.16-2.777 1.414-1.238 2.274-2.377 2.809-3.725.465-1.171.457-1.05.457-7.091 0-5.954.022-5.638-.404-5.893C23.395 6.005 15.5 6 15.5 6zm5.479 3.014s.014 7.534-.028 8.183c-.042.65.046.194-.197.807-.341.861-.815 1.54-1.996 2.574-.897.785-2.026 1.512-3.258 2.168l-.5-.295V9.001z"/></svg>
